archdroid-icon-theme/Archdroid-Blue/places/scalable/folder-linux-mint.svg

<?xml version="1.0" encoding="UTF-8" standalone="no"?>
<svg
   xmlns:dc="http://purl.org/dc/elements/1.1/"
   xmlns:cc="http://creativecommons.org/ns#"
   xmlns:rdf="http://www.w3.org/1999/02/22-rdf-syntax-ns#"
   xmlns:svg="http://www.w3.org/2000/svg"
   xmlns="http://www.w3.org/2000/svg"
   xmlns:sodipodi="http://sodipodi.sourceforge.net/DTD/sodipodi-0.dtd"
   xmlns:inkscape="http://www.inkscape.org/namespaces/inkscape"
   fill="#2196F3"
   width="48"
   height="48"
   viewBox="0 0 48 48"
   id="svg2"
   version="1.1"
   inkscape:version="0.91 r13725"
   sodipodi:docname="folder-.svg">
  <metadata
     id="metadata10">
    <rdf:RDF>
      <cc:Work
         rdf:about="">
        <dc:format>image/svg+xml</dc:format>
        <dc:type
           rdf:resource="http://purl.org/dc/dcmitype/StillImage" />
        <dc:title />
      </cc:Work>
    </rdf:RDF>
  </metadata>
  <defs
     id="defs8" />
  <sodipodi:namedview
     pagecolor="#ffffff"
     bordercolor="#666666"
     borderopacity="1"
     objecttolerance="10"
     gridtolerance="10"
     guidetolerance="10"
     inkscape:pageopacity="0"
     inkscape:pageshadow="2"
     inkscape:window-width="1366"
     inkscape:window-height="713"
     id="namedview6"
     showgrid="false"
     inkscape:zoom="11.02408851011358"
     inkscape:cx="17.67713009297236"
     inkscape:cy="17.1708534761523"
     inkscape:window-x="0"
     inkscape:window-y="30"
     inkscape:window-maximized="1"
     inkscape:current-layer="svg2"
     inkscape:snap-bbox="true"
     inkscape:bbox-paths="true"
     inkscape:bbox-nodes="true" />
  <path
     d="M 8 8 C 5.79 8 4.01953125 9.789999999999999 4.01953125 12 L 4 36 C 4 38.21 5.790000000000001 40 8 40 L 40 40 C 42.21 40 44 38.21 44 36 L 44 16 C 44 13.79 42.21 12 40 12 L 24 12 L 20 8 L 8 8 z M 19 17.0703125 L 28.943359375 17.1171875 L 32.052734375 17.123046875 C 35.7748240289973 17.12304687500028 39 19.9390962560721 39 23.658203125 L 39 35 L 28.306640625 35 C 24.58739171868786 35 21.361328125 32.1806127403983 21.361328125 28.46484375 L 21.357421875 23.953125 L 21.357421875 22.802734375 L 19 22.802734375 L 19 17.0703125 z M 20.517578125 18.595703125 L 20.517578125 21.287109375 L 21.4609375 21.287109375 C 22.10152610292029 21.287109375 22.873046875 21.88829591979859 22.873046875 22.771484375 L 22.87890625 28.4609375 C 22.87890625 31.23350724035566 25.31036200446701 33.48046875 28.306640625 33.48046875 L 35.705078125 33.48046875 C 36.65360377695158 33.48046875 37.48437500000001 32.88020322886484 37.484375 31.95703125 L 37.484375 23.658203125 C 37.484375 20.88563338464435 35.05256393013892 18.638671875 32.052734375 18.638671875 L 28.939453125 18.638671875 L 28.939453125 18.630859375 L 20.517578125 18.595703125 z M 24.33203125 20.283203125 L 25.880859375 20.283203125 L 25.880859375 28.220703125 C 25.88085937499999 29.28250359088262 26.6042385730924 30.107421875 27.453125 30.107421875 L 32.73046875 30.12890625 C 33.83019319747456 30.12890625 34.685546875 29.37175289223624 34.685546875 28.47265625 L 34.677734375 24.2578125 C 34.67773437500001 23.98424849795466 34.58787952832936 23.76955555170872 34.392578125 23.572265625 C 34.19663755344158 23.37440754875429 33.9881949179024 23.28515625 33.71875 23.28515625 C 33.44369460542014 23.28515625 33.23933543371115 23.3739104179095 33.04296875 23.572265625 C 32.84745429059423 23.76955555170872 32.759765625 23.98431951664678 32.759765625 24.2578125 L 32.759765625 27.86328125 L 31.123046875 27.86328125 L 31.123046875 24.2578125 C 31.12304687500001 23.98424849795466 31.03319202832935 23.76955555170872 30.837890625 23.572265625 C 30.64152394128883 23.37391041790948 30.43716476957986 23.28515625 30.162109375 23.28515625 C 29.89266445709761 23.28515625 29.68617494655844 23.37433653006222 29.490234375 23.572265625 C 29.29471991559424 23.76955555170872 29.205078125 23.98431951664678 29.205078125 24.2578125 L 29.205078125 27.86328125 L 27.568359375 27.86328125 L 27.568359375 24.2578125 C 27.568359375 23.54478483111755 27.83063928363446 22.91080218719818 28.33203125 22.404296875 C 28.83370729113403 21.89750748803336 29.45937941647491 21.63671875 30.162109375 21.63671875 L 30.1640625 21.63671875 C 30.8535829817908 21.63671875 31.45283304659536 21.89434482593319 31.939453125 22.36328125 C 32.42728052117067 21.893634639012 33.03089856844071 21.63671875 33.720703125 21.63671875 C 34.42343308352508 21.63671875 35.04743615863445 21.89750748803336 35.548828125 22.404296875 C 36.05029111005768 22.9105181124297 36.3125 23.54407464419635 36.3125 24.2578125 L 36.318359375 28.759765625 C 36.2410910379737 29.51370006054344 35.92305146902165 30.1831283556332 35.37890625 30.7421875 L 35.376953125 30.7421875 C 34.73714572769304 31.39357094412248 33.94373422053435 31.73046875 33.041015625 31.73046875 L 27.166015625 31.73046875 C 26.4470223859795 31.65355550643428 25.80746266636128 31.31229260322567 25.275390625 30.787109375 C 24.65284076987811 30.16683211802599 24.33203125 29.3999147997628 24.33203125 28.525390625 L 24.33203125 20.283203125 z "
     id="path4184" />
</svg>

<svg xmlns="http://www.w3.org/2000/svg" fill="#2196F3" viewBox="0 0 48 48"><path d="m8 8c-2.21 0-3.98 1.79-3.98 4l-.02 24c0 2.21 1.79 4 4 4h32c2.21 0 4-1.79 4-4v-20c0-2.21-1.79-4-4-4h-16l-4-4h-12m11 9.07l9.943.047 3.109.006c3.722 0 6.947 2.816 6.947 6.535v11.342h-10.693c-3.719 0-6.945-2.819-6.945-6.535l-.004-4.512v-1.15h-2.357v-5.732m1.518 1.525v2.691h.943c.641 0 1.412.601 1.412 1.484l.006 5.689c0 2.773 2.431 5.02 5.428 5.02h7.398c.949 0 1.779-.6 1.779-1.523v-8.299c0-2.773-2.432-5.02-5.432-5.02h-3.113v-.008l-8.422-.035m3.814 1.688h1.549v7.938c0 1.062.723 1.887 1.572 1.887l5.277.021c1.1 0 1.955-.757 1.955-1.656l-.008-4.215c0-.274-.09-.488-.285-.686-.196-.198-.404-.287-.674-.287-.275 0-.479.089-.676.287-.196.197-.283.412-.283.686v3.605h-1.637v-3.605c0-.274-.09-.488-.285-.686-.196-.198-.401-.287-.676-.287-.269 0-.476.089-.672.287-.196.197-.285.412-.285.686v3.605h-1.637v-3.605c0-.713.262-1.347.764-1.854.502-.507 1.127-.768 1.83-.768h.002c.69 0 1.289.258 1.775.727.488-.47 1.091-.727 1.781-.727.703 0 1.327.261 1.828.768.501.506.764 1.14.764 1.854l.006 4.502c-.077.754-.395 1.423-.939 1.982h-.002c-.64.651-1.433.988-2.336.988h-5.875c-.719-.077-1.359-.418-1.891-.943-.623-.62-.943-1.387-.943-2.262v-8.242"/></svg>
